covid.svg

<svg viewBox="0 0 24 24" xmlns="http://www.w3.org/2000/svg"><path d="m0 0h24v24h-24z" fill="none"/><path d="m21.77 10.27a1.73 1.73 0 0 0 -1.66 1.3h-1.68a6.44 6.44 0 0 0 -1.58-3.81l1.15-1.19a1.71 1.71 0 0 0 2.09-.26 1.73 1.73 0 1 0 -2.44-2.44 1.71 1.71 0 0 0 -.22 2.13l-1.19 1.15a6.44 6.44 0 0 0 -3.81-1.58v-1.68a1.73 1.73 0 1 0 -.86 0v1.68a6.44 6.44 0 0 0 -3.81 1.58l-1.19-1.15a1.71 1.71 0 0 0 -.26-2.09 1.73 1.73 0 0 0 -2.44 2.4 1.71 1.71 0 0 0 2.13.26l1.15 1.19a6.44 6.44 0 0 0 -1.58 3.81h-1.68a1.73 1.73 0 1 0 0 .86h1.68a6.44 6.44 0 0 0 1.58 3.81l-1.15 1.19a1.71 1.71 0 0 0 -2.09.26 1.73 1.73 0 0 0 2.44 2.44 1.71 1.71 0 0 0 .22-2.13l1.19-1.19a6.44 6.44 0 0 0 3.81 1.58v1.68a1.73 1.73 0 1 0 .86 0v-1.64a6.44 6.44 0 0 0 3.81-1.58l1.19 1.15a1.71 1.71 0 0 0 .26 2.09 1.73 1.73 0 0 0 2.44-2.44 1.71 1.71 0 0 0 -2.13-.22l-1.19-1.19a6.44 6.44 0 0 0 1.58-3.81h1.68a1.72 1.72 0 1 0 1.66-2.16zm-15.27 2.48a.5.5 0 1 1 .5.5.5.5 0 0 1 -.5-.5zm3.5 3.5a.5.5 0 1 1 .5-.5.5.5 0 0 1 -.5.5zm0-2.5a1 1 0 1 1 1-1 1 1 0 0 1 -1 1zm4 2.5a.5.5 0 1 1 .5-.5.5.5 0 0 1 -.5.5zm0-2.5a1 1 0 1 1 1-1 1 1 0 0 1 -1 1zm0-4a1 1 0 1 1 1-1 1 1 0 0 1 -1 1zm3 3.5a.5.5 0 1 1 .5-.5.5.5 0 0 1 -.5.5z"/></svg>

<svg xmlns="http://www.w3.org/2000/svg" viewBox="0 0 24 24"><defs><style>.a{fill:none;}</style></defs><title>名称未設定-2</title><path class="a" d="M0,0H24V24H0Z"/><path d="M21.77,10.27a1.73,1.73,0,0,0-1.66,1.3H18.43a6.44,6.44,0,0,0-1.58-3.81L18,6.57a1.71,1.71,0,0,0,2.09-.26,1.73,1.73,0,1,0-2.44-2.44A1.71,1.71,0,0,0,17.43,6L16.24,7.15a6.44,6.44,0,0,0-3.81-1.58V3.89a1.73,1.73,0,1,0-.86,0V5.57A6.44,6.44,0,0,0,7.76,7.15L6.57,6a1.71,1.71,0,0,0-.26-2.09A1.73,1.73,0,0,0,3.87,6.31,1.71,1.71,0,0,0,6,6.57L7.15,7.76a6.44,6.44,0,0,0-1.58,3.81H3.89a1.73,1.73,0,1,0,0,.86H5.57a6.44,6.44,0,0,0,1.58,3.81L6,17.43a1.71,1.71,0,0,0-2.09.26,1.73,1.73,0,0,0,2.44,2.44A1.71,1.71,0,0,0,6.57,18l1.19-1.19a6.44,6.44,0,0,0,3.81,1.58v1.68a1.73,1.73,0,1,0,.86,0V18.43a6.44,6.44,0,0,0,3.81-1.58L17.43,18a1.71,1.71,0,0,0,.26,2.09,1.73,1.73,0,0,0,2.44-2.44A1.71,1.71,0,0,0,18,17.43l-1.19-1.19a6.44,6.44,0,0,0,1.58-3.81h1.68a1.72,1.72,0,1,0,1.66-2.16ZM6.5,12.75a.5.5,0,1,1,.5.5A.5.5,0,0,1,6.5,12.75Zm3.5,3.5a.5.5,0,1,1,.5-.5A.5.5,0,0,1,10,16.25Zm0-2.5a1,1,0,1,1,1-1A1,1,0,0,1,10,13.75Zm4,2.5a.5.5,0,1,1,.5-.5A.5.5,0,0,1,14,16.25Zm0-2.5a1,1,0,1,1,1-1A1,1,0,0,1,14,13.75Zm0-4a1,1,0,1,1,1-1A1,1,0,0,1,14,9.75Zm3,3.5a.5.5,0,1,1,.5-.5A.5.5,0,0,1,17,13.25Z"/></svg>
